X:57
K: G
T: Mazurka de Lapleau
M: 3/4
L: 1/8
DG|B2 Bd BG|B2 Bd BG|A2 Ac BA|B2 G2 DG|B2 Bd BG|B2 Bd BG|A2 Ac AF|G4 :||
dB|GD GB dB|c2 A2 cA|FD FA cA|B2 G2 dB|GD GB dB|c2 A2 cA|FD FA cA|G4 :||
